X:1
T:In the Hollow of God’s Hand
T:In the Hollow of God’s Hand
T:Lelia Naylor Morris
T:Lelia Naylor Morris, 1908
T:Public Domain Courtesy of the Cyber Hymnal™
T:Public Domain Courtesy of the Cyber Hymnal™
C:Lelia Naylor Morris
Z:Public Domain
Z:Courtesy of the Cyber Hymnal™
%%score ( 1 2 ) ( 3 4 )
L:1/8
Q:1/4=95
M:4/4
K:G
V:1 treble 
V:2 treble 
V:3 bass 
V:4 bass 
V:1
 [B,D]2 [^A,^C][B,D] [A,E]2 [B,D]2 | (GF)[DE][DF] [DG]2 [B,D]2 | %2
w: 1.~Blest re- ve- la- tion,|won- * drous sal- va- tion,|
w: 2.~Noth- ing can harm me,|naught * can a- larm me,|
w: 3.~Come all ye bur- dened,|and * hea- vy la- den,|
 [DB][DB][^C^A][DB] [=Fd][Fd][^Fd][F=A] | [EG]2 [^CE]2 D4 | [B,D]2 [^A,^C][B,D] [A,E]2 [B,D]2 | %5
w: God in love doth for the lost of|earth pro- vide;|Sins like a moun- tain,|
w: Fierce- ly tho’ the tem- pest rage o’er|sea and land;|Wak- ing or sleep- ing,|
w: With- out doubt- ing all your cares up-|on Him roll;|Gra- cious for- ev- er,|
 (GF)[DE][DF] [DG]2 [DB]2 | [Gd][Gd][Ee][Ed] [Ed][Ed]E[Ec] | [DB]2 [CA]2 [B,G]4 || %8
w: lost * in the foun- tain,|Cal- v’ry’s stream for- ev- er flows, a|cleans- ing tide.|
w: safe * in His keep- ing,|Kept with- in the hol- low of His|might- y hand.|
w: strong * to de- liv- er,|Ye shall sure- ly find sweet rest un-|to your soul.|
"^Refrain" [Bd]2 [Bd]>[Bd] [ce]<[Bd] [DB][B,D] | E6 z2 | [FA]2 [FA]>[FA] [FA]<[Ac] [GB][FA] | %11
w: |||
w: Safe in the hol- low of His|hand,|Safe in the hol- low of His|
w: |||
 G2 A2 [GB]2 z2 | [GB][GB][Fc][Fc] [Gd]2 [GB]2 | [Gd][Gd][B^d][Bd] [Be]2 E2 | %14
w: |||
w: hand, To His|* prom- ise cling- ing, ev-|er- more I’m sing- ing, I|
w: |||
!p! [DG][DG][DG][DG] [CG][CG][_B,G][B,G] | [B,G]2 [DF]2 [DG]4 |] %16
w: ||
w: am safe with- in the hol- low of|God’s hand. *|
w: ||
V:2
 x8 | D2 x6 | x8 | x4 (D2 =C2) | x8 | D2 x6 | x6 E x | x8 || x8 | (C2 DD C2) x2 | x8 | G2 FF x4 | %12
 x8 | x6 E2 | x8 | x8 |] %16
V:3
 [G,,G,]2 [G,,E,][G,,D,] [G,,^C,]2 (D,G,) | (B,A,)[D,G,][D,A,] [G,B,]2 G,2 | %2
w: ~ ~ ~ ~ ~ *|~ * ~ ~ ~ ~|
 G,=G,=G,=G, [^G,B,][G,B,][A,D][A,D] | [A,^C]2 (A,G,) [D,F,]4 | %4
w: ~ ~ ~ ~ ~ ~ ~ ~|~ ~ * ~|
 [G,,G,]2 [G,,E,][G,,D,] [G,,^C,]2 (D,G,) | (B,A,)[D,G,][D,A,] [G,B,]2 G,2 | %6
w: ~ ~ ~ ~ ~ *|~ * ~ ~ ~ ~|
 [G,B,][G,B,][^G,B,][G,B,] [A,C][A,C][C,C][C,A,] | [D,G,]2 [D,F,]2 [G,,D,]4 || %8
w: ~ ~ ~ ~ ~ ~ ~ ~|~ ~ ~|
 [G,,G,]4 [G,,G,]2 [G,,G,]2 | [C,G,][C,G,][B,,^G,][B,,G,] [A,,A,]2 z2 | [D,D]4 [D,D]2 [D,D]2 | %11
w: Safe in the|hol- low of His hand,|Safe in the|
 [G,B,][G,B,][D,C][D,C] [G,D]2 z2 | [G,D][G,D][A,D][A,D] [B,D]2 [G,D]2 | %13
w: hol- low of His hand,||
 [G,B,][G,B,][F,A,][F,A,] [E,G,]2 [E,G,]2 | [D,B,][D,B,][=F,B,][F,B,] [E,G,][E,G,][_E,G,][E,G,] | %15
w: ||
 [D,G,]2 (A,C) [G,,B,]4 |] %16
w: |
V:4
 x6 G,,2 | D,2 x3 G,2 x | ^G,^G,^G,^G, x4 | x2 A,,2 x4 | x6 G,,2 | D,2 x3 G,2 x | x8 | x8 || x8 | %9
 x8 | x8 | x8 | x8 | x8 | x8 | x2 D,2 x4 |] %16

